X:1
T:The Bigler's Crew
M:6/8
L:1/4
K:C
 D/2| D A/2 A A/2| A/2 A- A G/2| G A/2 G E/2| C3/2- C E/2| G G/2 G E/2|\
 G/2 G- G E/2| D D/2 E G/2| A3/2- A A/4A/4| D E/2 ^F G/2| A/2 d- d e/2|\
 d c/2 A B/2| c3/2- c E/4E/4| E F/2 E D/2| D/2 A- A G/2| A A/2 G E/2|\
 D3| A/2 D- D3/2| A/2 D- D E/2| G/2G/2G/2 G E/2| C3| G/2G/2G/2 G E/2|\
 G G/2 G E/2| D D/2 E G/2| A3/2- A B/2| D E/2 ^F G/2| A/2 d- d e/2|\
 d c/2 A B/2| c3/2- c E/4E/4| E F/2 E D/2| D/4D/4 A- A G/2| A3/2 D3/2|\
 D3/2 z|| D3|
